assets/img/braze_icons/bar-chart-06.svg

<svg fill="none" height="24" viewBox="0 0 24 24" width="24" xmlns="http://www.w3.org/2000/svg"><g clip-rule="evenodd" fill="#801ed7" fill-rule="evenodd"><path d="m9 7c.55228 0 1 .44772 1 1v13c0 .5523-.44772 1-1 1s-1-.4477-1-1v-13c0-.55228.44772-1 1-1z"/><path d="m21 16c.5523 0 1 .4477 1 1v4c0 .5523-.4477 1-1 1s-1-.4477-1-1v-4c0-.5523.4477-1 1-1z"/><path d="m3 2c.55228 0 1 .44772 1 1v18c0 .5523-.44772 1-1 1s-1-.4477-1-1v-18c0-.55228.44772-1 1-1z"/><path d="m15 12c.5523 0 1 .4477 1 1v8c0 .5523-.4477 1-1 1s-1-.4477-1-1v-8c0-.5523.4477-1 1-1z"/></g></svg>

<svg width="24" height="24" viewBox="0 0 24 24" fill="none" xmlns="http://www.w3.org/2000/svg">
<path fill-rule="evenodd" clip-rule="evenodd" d="M9 7C9.55228 7 10 7.44772 10 8V21C10 21.5523 9.55228 22 9 22C8.44772 22 8 21.5523 8 21V8C8 7.44772 8.44772 7 9 7Z" fill="#801ED7"/>
<path fill-rule="evenodd" clip-rule="evenodd" d="M21 16C21.5523 16 22 16.4477 22 17V21C22 21.5523 21.5523 22 21 22C20.4477 22 20 21.5523 20 21V17C20 16.4477 20.4477 16 21 16Z" fill="#801ED7"/>
<path fill-rule="evenodd" clip-rule="evenodd" d="M3 2C3.55228 2 4 2.44772 4 3V21C4 21.5523 3.55228 22 3 22C2.44772 22 2 21.5523 2 21V3C2 2.44772 2.44772 2 3 2Z" fill="#801ED7"/>
<path fill-rule="evenodd" clip-rule="evenodd" d="M15 12C15.5523 12 16 12.4477 16 13V21C16 21.5523 15.5523 22 15 22C14.4477 22 14 21.5523 14 21V13C14 12.4477 14.4477 12 15 12Z" fill="#801ED7"/>
</svg>
